X: 1
T:B365- Peg a Ramsay, or Peggy Ramsey
S:(1st/2)
Q:1/4=120
L:1/4
M:C|
K:F
GABG|AFFA|GECD|E2F2::\
EDEC|D=B,G,2|CCCD|E2.F2:|]
